**kern	**kern
*part1	*part1
*staff2	*staff1
*I"Piano	*
*clefF4	*clefG2
*k[f#c#g#d#]	*k[f#c#g#d#]
=1	=1
*^	*
4BB] 4E] 4G#]	4EE]	4B] 4e] 4g#]
8r	8ryy	8r
*v	*v	*
4.BB 4.E 4.G#	4.B 4.e 4.g#
=	=
*^	*^
4.D# 4.F#	2.BB	4.d# 4.f#	2.B
4.E 4.G#	.	4.e 4.g#	.
*v	*v	*	*
*	*v	*v
=	=
[4.F# [4.A	[4.f# [4.a
4F#] 4A]	4f#] 4a]
8A 8c#	8a 8cc#
=	=
(2.E 2.G# 2.B	((2.g# 2.b
=	=
4.E) 4.G#	4.e)) 4.g#
4r	4r
8BB 8E 8G#	8B 8e 8g#
=	=
4.BB 4.D# 4.F#	4.B 4.d# 4.f#
4.BB 4.E 4.G#	4.B 4.e 4.g#
=	=
4.BB 4.F# 4.A	4.B 4.f# 4.a
4A 4c#	4a 4cc#
8G# 8B	8g# 8b
=	=
[2.E [2.G# [2.B	[2.g# [2.b
=	=
4.E] 4.G#] 4.B]	4.g#] 4.b]
4r	4r
8E 8A 8c#	8e 8a 8cc#
=	=
*^	*^
4.G# [4.B	2.E	[4.g# [4.b	2.e
4G# 4B]	.	4g#] 4b]	.
8A 8c#	.	8a 8cc#	.
*v	*v	*	*
*	*v	*v
=	=
*-	*-
!!!system-decoration: {(s1,s2)}
